;FLAVOR:Marlin
;TIME:4075
;Filament used: 2.56003m
;Layer height: 0.2
;MINX:92.82
;MINY:92.82
;MINZ:0.2
;MAXX:142.18
;MAXY:142.18
;MAXZ:20
;TARGET_MACHINE.NAME:Creality Ender-3
;POSTPROCESSED
;  [PauseAtHeight]
;Generated with Cura_SteamEngine 5.8.0
M140 S60
M105
M190 S60
M104 S220
M105
M109 S220
M82 ;absolute extrusion mode
; Ender 3 Custom Start G-code
G92 E0 ; Reset Extruder
G28 ; Home all axes
G1 Z2.0 F3000 ; Move Z Axis up little to prevent scratching of Heat Bed
G1 X0.1 Y20 Z0.3 F5000.0 ; Move to start position
G1 X0.1 Y200.0 Z0.3 F1500.0 E15 ; Draw the first line
G1 X0.4 Y200.0 Z0.3 F5000.0 ; Move to side a little
G1 X0.4 Y20 Z0.3 F1500.0 E30 ; Draw the second line
G92 E0 ; Reset Extruder
G1 Z2.0 F3000 ; Move Z Axis up little to prevent scratching of Heat Bed
G1 X5 Y20 Z0.3 F5000.0 ; Move over to prevent blob squish
G92 E0
G92 E0
G1 F2700 E-5
;LAYER_COUNT:100
;LAYER:0
M107
G0 F6000 X99.886 Y99.773 Z0.2
;TYPE:SKIRT
G1 F2700 E0
G1 F1200 X100.438 Y99.243 E0.02545
G1 X101.152 Y98.634 E0.05667
G1 X101.942 Y98.07 E0.08895
G1 X102.866 Y97.516 E0.12478
G1 X104.438 Y96.628 E0.18483
G1 X107.369 Y94.848 E0.29889
G1 X108.22 Y94.374 E0.33129
G1 X109.102 Y93.979 E0.36343
G1 X109.838 Y93.718 E0.3894
G1 X110.606 Y93.482 E0.41612
G1 X111.111 Y93.341 E0.43356
G1 X111.801 Y93.169 E0.45722
G1 X112.758 Y92.99 E0.4896
G1 X113.716 Y92.896 E0.52161
G1 X114.372 Y92.88 E0.54344
G1 X116.642 Y92.894 E0.61894
G1 X118.954 Y92.853 E0.69585
G1 X120.094 Y92.82 E0.73378
G1 X121.067 Y92.837 E0.76615
G1 X121.965 Y92.929 E0.79617
G1 X122.746 Y93.071 E0.82258
G1 X123.381 Y93.211 E0.8442
G1 X124.049 Y93.382 E0.86714
G1 X124.624 Y93.548 E0.88704
G1 X125.513 Y93.85 E0.91827
G1 X126.429 Y94.254 E0.95157
G1 X127.122 Y94.628 E0.97776
G1 X127.854 Y95.06 E1.00603
G1 X131.138 Y96.91 E1.1314
G1 X132.092 Y97.425 E1.16745
G1 X132.927 Y97.926 E1.19984
G1 X133.683 Y98.475 E1.23092
G1 X134.266 Y98.972 E1.2564
G1 X134.791 Y99.458 E1.28019
G1 X135.217 Y99.875 E1.30002
G1 X135.67 Y100.342 E1.32166
G1 X136.336 Y101.112 E1.35552
G1 X136.865 Y101.843 E1.38553
G1 X137.19 Y102.363 E1.40593
G1 X137.559 Y102.998 E1.43035
G1 X138.36 Y104.418 E1.48458
G1 X139.803 Y106.808 E1.57744
G1 X140.148 Y107.361 E1.59911
G1 X140.591 Y108.148 E1.62915
G1 X141.019 Y109.095 E1.66372
G1 X141.284 Y109.844 E1.69014
G1 X141.517 Y110.601 E1.71649
G1 X141.658 Y111.104 E1.73386
G1 X141.829 Y111.789 E1.75734
G1 X142.009 Y112.746 E1.78973
G1 X142.104 Y113.705 E1.82178
G1 X142.12 Y114.37 E1.84391
G1 X142.106 Y116.652 E1.91981
G1 X142.147 Y118.937 E1.99582
G1 X142.18 Y120.067 E2.03342
G1 X142.164 Y121.042 E2.06585
G1 X142.063 Y121.998 E2.09783
G1 X141.945 Y122.65 E2.11987
G1 X141.805 Y123.311 E2.14234
G1 X141.618 Y124.049 E2.16766
G1 X141.452 Y124.624 E2.18757
G1 X141.15 Y125.513 E2.21879
G1 X140.746 Y126.429 E2.25209
G1 X140.371 Y127.123 E2.27833
G1 X139.93 Y127.869 E2.30715
G1 X138.11 Y131.098 E2.43043
G1 X137.582 Y132.084 E2.46763
G1 X137.12 Y132.859 E2.49764
G1 X136.513 Y133.699 E2.53211
G1 X136.043 Y134.251 E2.55623
G1 X135.542 Y134.792 E2.58075
G1 X135.12 Y135.221 E2.60076
G1 X134.562 Y135.757 E2.6265
G1 X133.848 Y136.366 E2.65771
G1 X133.058 Y136.93 E2.69
G1 X132.134 Y137.484 E2.72583
G1 X130.562 Y138.372 E2.78588
G1 X127.631 Y140.152 E2.89993
G1 X126.78 Y140.626 E2.93233
G1 X125.898 Y141.021 E2.96448
G1 X125.162 Y141.282 E2.99045
G1 X124.382 Y141.522 E3.01759
G1 X123.26 Y141.818 E3.05619
G1 X122.277 Y142.005 E3.08947
G1 X121.323 Y142.102 E3.12136
G1 X120.796 Y142.119 E3.1389
G1 X120.144 Y142.123 E3.16058
G1 X118.332 Y142.106 E3.22085
G1 X116.061 Y142.147 E3.2964
G1 X114.931 Y142.18 E3.334
G1 X113.956 Y142.164 E3.36643
G1 X112.999 Y142.063 E3.39844
G1 X112.342 Y141.943 E3.42065
G1 X111.684 Y141.803 E3.44303
G1 X110.951 Y141.618 E3.46817
G1 X110.376 Y141.452 E3.48808
G1 X109.487 Y141.15 E3.51931
G1 X108.571 Y140.746 E3.5526
G1 X107.878 Y140.372 E3.5788
G1 X107.132 Y139.932 E3.6076
G1 X103.862 Y138.09 E3.73243
G1 X102.908 Y137.575 E3.76849
G1 X102.073 Y137.074 E3.80088
G1 X101.317 Y136.525 E3.83195
G1 X100.734 Y136.028 E3.85743
G1 X100.208 Y135.541 E3.88127
G1 X99.779 Y135.12 E3.90127
G1 X99.261 Y134.581 E3.92613
G1 X98.629 Y133.842 E3.95847
G1 X98.088 Y133.086 E3.98939
G1 X97.8 Y132.62 E4.00761
G1 X97.516 Y132.134 E4.02633
G1 X96.628 Y130.562 E4.08638
G1 X95.197 Y128.193 E4.17844
G1 X94.848 Y127.631 E4.20044
G1 X94.374 Y126.78 E4.23284
G1 X93.979 Y125.898 E4.26498
G1 X93.718 Y125.162 E4.29096
G1 X93.482 Y124.394 E4.31768
G1 X93.341 Y123.889 E4.33512
G1 X93.168 Y123.191 E4.35903
G1 X92.989 Y122.233 E4.39145
G1 X92.896 Y121.281 E4.42326
G1 X92.881 Y120.791 E4.43957
G1 X92.877 Y120.129 E4.46159
G1 X92.894 Y118.305 E4.52226
G1 X92.853 Y116.051 E4.59724
G1 X92.82 Y114.932 E4.63447
G1 X92.836 Y113.957 E4.6669
G1 X92.937 Y113 E4.69891
G1 X93.056 Y112.346 E4.72102
G1 X93.196 Y111.689 E4.74336
G1 X93.372 Y110.979 E4.76769
G1 X93.531 Y110.426 E4.78683
G1 X93.848 Y109.488 E4.81976
G1 X94.209 Y108.66 E4.84981
G1 X94.627 Y107.882 E4.87918
G1 X95.061 Y107.147 E4.90757
G1 X96.889 Y103.902 E5.03145
G1 X97.418 Y102.916 E5.06866
G1 X97.88 Y102.141 E5.09867
G1 X98.468 Y101.326 E5.1321
G1 X98.958 Y100.748 E5.1573
G1 X99.467 Y100.198 E5.18222
G1 X99.886 Y99.773 E5.20207
G0 F6000 X100.163 Y100.061
G1 F1200 X100.698 Y99.547 E5.22675
G1 X101.384 Y98.96 E5.25678
G1 X102.174 Y98.396 E5.28906
G1 X103.063 Y97.864 E5.32352
G1 X104.635 Y96.976 E5.38357
G1 X107.01 Y95.541 E5.47586
G1 X107.564 Y95.197 E5.49755
G1 X108.384 Y94.739 E5.52879
G1 X109.236 Y94.356 E5.55986
G1 X109.956 Y94.1 E5.58528
G1 X110.714 Y93.867 E5.61165
G1 X111.208 Y93.729 E5.62871
G1 X111.875 Y93.562 E5.65158
G1 X112.797 Y93.388 E5.68279
G1 X113.726 Y93.296 E5.71384
G1 X114.37 Y93.28 E5.73527
G1 X116.647 Y93.294 E5.811
G1 X118.966 Y93.253 E5.88814
G1 X120.088 Y93.22 E5.92548
G1 X121.026 Y93.235 E5.95668
G1 X121.924 Y93.327 E5.9867
G1 X122.66 Y93.462 E6.01159
G1 X123.282 Y93.599 E6.03277
G1 X123.938 Y93.766 E6.05529
G1 X124.495 Y93.927 E6.07457
G1 X125.384 Y94.229 E6.1058
G1 X126.239 Y94.606 E6.13688
G1 X126.919 Y94.973 E6.16258
G1 X127.658 Y95.409 E6.19112
G1 X130.942 Y97.259 E6.31648
G1 X131.887 Y97.768 E6.35218
G1 X132.692 Y98.25 E6.38339
G1 X133.448 Y98.799 E6.41447
G1 X133.994 Y99.265 E6.43834
G1 X134.511 Y99.744 E6.46178
G1 X134.93 Y100.154 E6.48128
G1 X135.383 Y100.621 E6.50292
G1 X136.012 Y101.347 E6.53487
G1 X136.541 Y102.078 E6.56488
G1 X136.844 Y102.564 E6.58393
G1 X137.211 Y103.194 E6.60818
G1 X138.018 Y104.625 E6.66282
G1 X139.464 Y107.02 E6.75587
G1 X139.799 Y107.557 E6.77692
G1 X140.242 Y108.344 E6.80696
G1 X140.642 Y109.229 E6.83926
G1 X140.902 Y109.962 E6.86513
G1 X141.132 Y110.709 E6.89113
G1 X141.27 Y111.201 E6.90812
G1 X141.436 Y111.864 E6.93086
G1 X141.611 Y112.786 E6.96207
G1 X141.704 Y113.715 E6.99312
G1 X141.72 Y114.368 E7.01485
G1 X141.706 Y116.65 E7.09075
G1 X141.747 Y118.949 E7.16723
G1 X141.78 Y120.061 E7.20423
G1 X141.766 Y121 E7.23546
G1 X141.669 Y121.927 E7.26646
G1 X141.554 Y122.567 E7.28809
G1 X141.417 Y123.213 E7.31005
G1 X141.234 Y123.938 E7.33492
G1 X141.073 Y124.495 E7.35421
G1 X140.771 Y125.384 E7.38544
G1 X140.394 Y126.239 E7.41652
G1 X140.027 Y126.919 E7.44222
G1 X139.586 Y127.665 E7.47104
G1 X137.758 Y130.909 E7.59489
G1 X137.238 Y131.879 E7.63149
G1 X136.776 Y132.654 E7.6615
G1 X136.208 Y133.44 E7.69376
G1 X135.75 Y133.979 E7.71728
G1 X135.256 Y134.512 E7.74145
G1 X134.843 Y134.933 E7.76107
G1 X134.302 Y135.453 E7.78602
G1 X133.616 Y136.04 E7.81605
G1 X132.826 Y136.604 E7.84834
G1 X131.937 Y137.136 E7.8828
G1 X130.365 Y138.024 E7.94285
G1 X127.99 Y139.459 E8.03514
G1 X127.436 Y139.803 E8.05683
G1 X126.616 Y140.261 E8.08807
G1 X125.764 Y140.644 E8.11914
G1 X125.044 Y140.9 E8.14455
G1 X124.28 Y141.135 E8.17114
G1 X123.158 Y141.431 E8.20973
G1 X122.236 Y141.607 E8.24095
G1 X121.31 Y141.702 E8.27191
G1 X120.794 Y141.719 E8.28908
G1 X120.148 Y141.723 E8.31057
G1 X118.329 Y141.706 E8.37107
G1 X116.049 Y141.747 E8.44692
G1 X114.937 Y141.78 E8.48392
G1 X113.998 Y141.766 E8.51516
G1 X113.07 Y141.669 E8.54619
G1 X112.425 Y141.552 E8.56799
G1 X111.782 Y141.415 E8.58986
G1 X111.062 Y141.234 E8.61455
G1 X110.505 Y141.073 E8.63384
G1 X109.616 Y140.771 E8.66506
G1 X108.761 Y140.394 E8.69614
G1 X108.081 Y140.027 E8.72184
G1 X107.335 Y139.587 E8.75065
G1 X104.058 Y137.741 E8.87575
G1 X103.113 Y137.232 E8.91145
G1 X102.308 Y136.75 E8.94265
G1 X101.552 Y136.201 E8.97373
G1 X101.006 Y135.735 E8.9976
G1 X100.488 Y135.255 E9.02109
G1 X100.067 Y134.843 E9.04068
G1 X99.565 Y134.321 E9.06477
G1 X98.954 Y133.609 E9.09598
G1 X98.428 Y132.875 E9.12601
G1 X98.145 Y132.418 E9.14389
G1 X97.864 Y131.937 E9.16242
G1 X96.976 Y130.365 E9.22247
G1 X95.539 Y127.986 E9.31491
G1 X95.197 Y127.436 E9.33645
G1 X94.739 Y126.616 E9.36769
G1 X94.356 Y125.764 E9.39876
G1 X94.1 Y125.044 E9.42417
G1 X93.867 Y124.286 E9.45055
G1 X93.729 Y123.792 E9.46761
G1 X93.561 Y123.117 E9.49074
G1 X93.387 Y122.194 E9.52198
G1 X93.296 Y121.269 E9.5529
G1 X93.281 Y120.789 E9.56887
G1 X93.277 Y120.133 E9.59069
G1 X93.294 Y118.309 E9.65136
G1 X93.253 Y116.044 E9.72671
G1 X93.22 Y114.938 E9.76351
G1 X93.234 Y113.999 E9.79474
G1 X93.331 Y113.071 E9.82578
G1 X93.447 Y112.429 E9.84748
G1 X93.584 Y111.785 E9.86937
G1 X93.757 Y111.089 E9.89323
G1 X93.91 Y110.554 E9.91173
G1 X94.215 Y109.648 E9.94353
G1 X94.576 Y108.82 E9.97357
G1 X94.971 Y108.085 E10.00133
G1 X95.405 Y107.35 E10.02972
G1 X97.242 Y104.091 E10.15414
G1 X97.762 Y103.121 E10.19075
G1 X98.224 Y102.346 E10.22076
G1 X98.792 Y101.56 E10.25301
G1 X99.252 Y101.02 E10.27661
G1 X99.761 Y100.47 E10.30153
G1 X100.163 Y100.061 E10.32061
G0 F6000 X100.44 Y100.349
G1 F1200 X100.958 Y99.851 E10.34451
G1 X101.644 Y99.264 E10.37454
G1 X102.379 Y98.739 E10.40458
G1 X103.26 Y98.212 E10.43872
G1 X104.832 Y97.324 E10.49877
G1 X107.221 Y95.881 E10.5916
G1 X107.76 Y95.546 E10.61271
G1 X108.548 Y95.104 E10.64276
G1 X109.371 Y94.733 E10.67278
G1 X110.074 Y94.482 E10.69761
G1 X110.822 Y94.252 E10.72364
G1 X111.305 Y94.117 E10.74032
G1 X111.95 Y93.955 E10.76244
G1 X112.837 Y93.786 E10.79247
G1 X113.736 Y93.696 E10.82252
G1 X114.368 Y93.68 E10.84355
G1 X116.652 Y93.694 E10.91952
G1 X118.978 Y93.653 E10.99689
G1 X120.082 Y93.62 E11.03363
G1 X120.985 Y93.633 E11.06366
G1 X121.883 Y93.725 E11.09369
G1 X122.574 Y93.853 E11.11706
G1 X123.184 Y93.987 E11.13783
G1 X123.827 Y94.15 E11.1599
G1 X124.367 Y94.306 E11.17859
G1 X125.223 Y94.595 E11.20864
G1 X126.049 Y94.958 E11.23865
G1 X126.716 Y95.318 E11.26386
G1 X127.462 Y95.758 E11.29267
G1 X130.746 Y97.608 E11.41803
G1 X131.682 Y98.112 E11.45339
G1 X132.457 Y98.574 E11.4834
G1 X133.189 Y99.104 E11.51346
G1 X133.722 Y99.558 E11.53674
G1 X134.231 Y100.03 E11.55983
G1 X134.643 Y100.433 E11.579
G1 X135.096 Y100.9 E11.60064
G1 X135.688 Y101.582 E11.63068
G1 X136.217 Y102.313 E11.66069
G1 X136.498 Y102.765 E11.67839
G1 X136.863 Y103.391 E11.70249
G1 X137.676 Y104.832 E11.75752
G1 X139.125 Y107.232 E11.85077
G1 X139.45 Y107.753 E11.87119
G1 X139.893 Y108.54 E11.90123
G1 X140.265 Y109.363 E11.93127
G1 X140.52 Y110.08 E11.95658
G1 X140.747 Y110.817 E11.98223
G1 X140.882 Y111.299 E11.99888
G1 X141.043 Y111.939 E12.02083
G1 X141.213 Y112.826 E12.05086
G1 X141.304 Y113.725 E12.08092
G1 X141.32 Y114.366 E12.10224
G1 X141.306 Y116.648 E12.17815
G1 X141.347 Y118.961 E12.25509
G1 X141.38 Y120.056 E12.29152
G1 X141.368 Y120.959 E12.32156
G1 X141.275 Y121.857 E12.35159
G1 X141.163 Y122.484 E12.37277
G1 X141.029 Y123.115 E12.39423
G1 X140.85 Y123.827 E12.41865
G1 X140.694 Y124.367 E12.43734
G1 X140.405 Y125.223 E12.46739
G1 X140.042 Y126.049 E12.4974
G1 X139.682 Y126.716 E12.52261
G1 X139.242 Y127.462 E12.55141
G1 X137.41 Y130.713 E12.67553
G1 X136.894 Y131.674 E12.71181
G1 X136.432 Y132.449 E12.74182
G1 X135.903 Y133.181 E12.77186
G1 X135.457 Y133.707 E12.79479
G1 X134.97 Y134.232 E12.81861
G1 X134.566 Y134.645 E12.83783
G1 X134.042 Y135.149 E12.86201
G1 X133.356 Y135.736 E12.89204
G1 X132.621 Y136.261 E12.92208
G1 X131.74 Y136.788 E12.95623
G1 X130.168 Y137.676 E13.01628
G1 X127.779 Y139.119 E13.1091
G1 X127.24 Y139.454 E13.13021
G1 X126.452 Y139.896 E13.16026
G1 X125.629 Y140.267 E13.19029
G1 X124.926 Y140.518 E13.21512
G1 X124.178 Y140.748 E13.24114
G1 X123.082 Y141.038 E13.27885
G1 X122.195 Y141.209 E13.3089
G1 X121.297 Y141.302 E13.33892
G1 X120.792 Y141.319 E13.35573
G1 X120.152 Y141.323 E13.37702
G1 X118.326 Y141.306 E13.43775
G1 X116.037 Y141.347 E13.5139
G1 X114.942 Y141.38 E13.55033
G1 X114.039 Y141.368 E13.58037
G1 X113.141 Y141.275 E13.6104
G1 X112.508 Y141.161 E13.63179
G1 X111.879 Y141.027 E13.65318
G1 X111.173 Y140.85 E13.67739
G1 X110.633 Y140.694 E13.69608
G1 X109.777 Y140.405 E13.72613
G1 X108.951 Y140.042 E13.75614
G1 X108.284 Y139.682 E13.78135
G1 X107.538 Y139.242 E13.81016
G1 X104.254 Y137.392 E13.93552
G1 X103.318 Y136.888 E13.97088
G1 X102.543 Y136.426 E14.00089
G1 X101.811 Y135.896 E14.03095
G1 X101.278 Y135.442 E14.05423
G1 X100.768 Y134.969 E14.07737
G1 X100.355 Y134.565 E14.09658
G1 X99.868 Y134.06 E14.11992
G1 X99.279 Y133.376 E14.14994
G1 X98.753 Y132.642 E14.17998
G1 X98.49 Y132.216 E14.19663
G1 X98.212 Y131.74 E14.21496
G1 X97.324 Y130.168 E14.27501
G1 X95.881 Y127.779 E14.36784
G1 X95.546 Y127.24 E14.38895
G1 X95.104 Y126.452 E14.419
G1 X94.733 Y125.629 E14.44902
G1 X94.482 Y124.926 E14.47385
G1 X94.252 Y124.178 E14.49988
G1 X94.117 Y123.695 E14.51656
G1 X93.954 Y123.042 E14.53895
G1 X93.785 Y122.155 E14.56898
G1 X93.696 Y121.256 E14.59902
G1 X93.681 Y120.787 E14.61463
G1 X93.677 Y120.137 E14.63625
G1 X93.694 Y118.313 E14.69692
G1 X93.653 Y116.037 E14.77263
G1 X93.62 Y114.943 E14.80904
G1 X93.632 Y114.04 E14.83907
G1 X93.725 Y113.142 E14.8691
G1 X93.838 Y112.512 E14.89039
G1 X93.972 Y111.882 E14.91181
G1 X94.142 Y111.199 E14.93522
G1 X94.295 Y110.664 E14.95373
G1 X94.582 Y109.808 E14.98376
G1 X94.943 Y108.98 E15.0138
G1 X95.316 Y108.288 E15.03995
G1 X95.749 Y107.553 E15.06832
G1 X97.59 Y104.287 E15.19302
G1 X98.106 Y103.326 E15.22929
G1 X98.568 Y102.551 E15.2593
G1 X99.097 Y101.819 E15.28934
G1 X99.545 Y101.292 E15.31235
G1 X100.047 Y100.75 E15.33692
G1 X100.44 Y100.349 E15.35559
G1 F2700 E10.35559
;MESH:Planeta.stl
G0 F6000 X114.487 Y115.659
G0 X117.5 Y120.862
;TYPE:WALL-INNER
G1 F2700 E15.35559
G1 F1200 X116.855 Y120.785 E15.3772
G1 X116.188 Y120.593 E15.40028
G1 X115.613 Y120.271 E15.4222
G1 X115.108 Y119.862 E15.44382
G1 X114.669 Y119.291 E15.46777
G1 X114.425 Y118.831 E15.48509
G1 X114.206 Y118.208 E15.50706
G1 X114.146 Y117.523 E15.52993
G1 X114.185 Y116.98 E15.54803
G1 X114.351 Y116.318 E15.57073
G1 X114.65 Y115.732 E15.59261
G1 X115.047 Y115.19 E15.61496
G1 X115.681 Y114.667 E15.6423
G1 X116.286 Y114.376 E15.66462
G1 X116.757 Y114.232 E15.68101
G1 X117.462 Y114.13 E15.7047
G1 X118.149 Y114.209 E15.7277
G1 X118.788 Y114.395 E15.74983
G1 X119.406 Y114.744 E15.77344
G1 X119.9 Y115.14 E15.7945
G1 X120.331 Y115.706 E15.81816
G1 X120.572 Y116.162 E15.83531
G1 X120.79 Y116.793 E15.85752
G1 X120.85 Y117.478 E15.88039
G1 X120.811 Y118.017 E15.89836
G1 X120.647 Y118.673 E15.92085
G1 X120.358 Y119.246 E15.9422
G1 X119.935 Y119.815 E15.96578
G1 X119.329 Y120.324 E15.9921
G1 X118.745 Y120.605 E16.01366
G1 X118.193 Y120.775 E16.03287
G1 X117.531 Y120.866 E16.05509
G1 X117.5 Y120.862 E16.05613
G1 F2700 E11.05613
G0 F6000 X117.532 Y126.197
G0 X117.5 Y126.398
G1 F2700 E16.05613
G1 F1200 X118.05 Y126.396 E16.07443
G1 X118.447 Y126.487 E16.08797
G1 X118.902 Y126.795 E16.10625
G1 X119.144 Y127.094 E16.11904
G1 X119.304 Y127.471 E16.13266
G1 X119.453 Y128.618 E16.17113
G1 X119.521 Y128.856 E16.17937
G1 X119.722 Y129.253 E16.19417
G1 X119.976 Y129.633 E16.20937
G1 X120.198 Y129.91 E16.22117
G1 X120.64 Y129.813 E16.23623
G1 X121.017 Y129.709 E16.24923
G1 X121.424 Y129.578 E16.26345
G1 X121.47 Y129.227 E16.27523
G1 X121.492 Y128.918 E16.28553
G1 X121.488 Y128.549 E16.29781
G1 X121.438 Y128.154 E16.31105
G1 X120.97 Y127.042 E16.35118
G1 X120.922 Y126.441 E16.37123
G1 X121.032 Y126.064 E16.38429
G1 X121.233 Y125.73 E16.39726
G1 X121.496 Y125.467 E16.40963
G1 X122.427 Y124.925 E16.44546
G1 X122.793 Y124.823 E16.45809
G1 X123.206 Y124.813 E16.47183
G1 X123.613 Y124.927 E16.48589
